svg/set/WOE/T.svg

<?xml version="1.0" encoding="UTF-8"?>
<svg id="Layer_2" data-name="Layer 2" xmlns="http://www.w3.org/2000/svg" xmlns:xlink="http://www.w3.org/1999/xlink" viewBox="0 0 1080.37 635.88">
  <defs>
    <style>
      .cls-1, .cls-2 {
        fill-rule: evenodd;
        stroke-width: 0px;
      }

      .cls-2 {
        fill: url(#New_Gradient_Swatch_2);
      }
    </style>
    <linearGradient id="New_Gradient_Swatch_2" data-name="New Gradient Swatch 2" x1="-419.63" y1="859.88" x2="-418.63" y2="859.88" gradientTransform="translate(423311.13 451238.69) scale(1008.69 -524.42)" gradientUnits="userSpaceOnUse">
      <stop offset="0" stop-color="#612c75"/>
      <stop offset="0" stop-color="#653179"/>
      <stop offset=".11" stop-color="#855693"/>
      <stop offset=".21" stop-color="#9e73a8"/>
      <stop offset=".31" stop-color="#b088b7"/>
      <stop offset=".41" stop-color="#bb94c0"/>
      <stop offset=".5" stop-color="#bf99c3"/>
      <stop offset=".59" stop-color="#bb94c0"/>
      <stop offset=".69" stop-color="#b088b7"/>
      <stop offset=".79" stop-color="#9e73a8"/>
      <stop offset=".89" stop-color="#855693"/>
      <stop offset=".99" stop-color="#653179"/>
      <stop offset="1" stop-color="#612c75"/>
    </linearGradient>
  </defs>
  <g id="Layer_1-2" data-name="Layer 1">
    <g>
      <path class="cls-1" d="M540,474.74l-26.39-54.88c-20.93-43.5-48.97-81.52-84.24-113.98l-22.8-20.99,21.94-21.89c31.99-31.93,60.5-71.29,85.75-117.84l25.74-47.46v-.68l.18.35.19-.35v.68l25.74,47.46c25.25,46.55,53.76,85.91,85.75,117.84l21.94,21.89-22.8,20.99c-35.27,32.46-63.31,70.48-84.24,113.98l-26.39,54.88v.77l-.19-.38-.18.38v-.77h0ZM258.54,11.76c82.44,28.12,149.99,66.34,204.47,108.42l19.56,15.12-11.3,21.97c-24.73,48.06-56.92,90.25-96.66,126.5,64.26,59.66,112.64,123.29,140.72,191.65l2.23,5.42v155.03l-50.68-50.57c-81.31-81.11-175.45-132.97-282.23-156.07l-28.8-6.24,6.01-28.86c24.24-116.22,42.25-235.84,57.61-357.97L224.03,0l34.51,11.76h0ZM107.32,89.11c18.76,2.08,36.95,7.63,54.76,15.35l22,9.53-66.14,332.46c111.86,12.2,217.94,81.44,277.15,147.16-113.45-48.86-242.88-69.94-395.08-51.49L79.58,86.03l27.73,3.08ZM821.83,11.76l34.5-11.76,4.56,36.17c15.36,122.14,33.37,241.75,57.61,357.97l6.01,28.86-28.8,6.24c-106.78,23.1-200.92,74.96-282.23,156.07l-50.68,50.57v-155.03l2.23-5.42c28.08-68.36,76.46-131.99,140.72-191.65-39.76-36.25-71.93-78.44-96.66-126.5l-11.3-21.97,19.56-15.12c54.48-42.08,122.03-80.3,204.47-108.42h0ZM973.06,89.11l27.73-3.08,79.58,456.08c-152.2-18.44-281.63,2.63-395.08,51.49,59.21-65.71,165.29-134.95,277.15-147.16l-66.14-332.46,22-9.53c17.81-7.72,36-13.27,54.76-15.35h0Z"/>
      <path class="cls-2" d="M540.37,406.99c-22.57-46.92-52.84-87.94-90.89-122.95,33.88-33.82,64.15-75.42,90.89-124.7,26.74,49.28,57.01,90.89,90.89,124.7-38.05,35.02-68.32,76.03-90.89,122.95h0ZM248.95,39.88c78.98,26.93,143.71,63.49,195.9,103.81-28.13,54.65-66.58,101.2-115.54,139.48,73.3,62.92,128.41,130.21,158.54,203.56v77.57c-85.52-85.32-184.61-139.78-296.92-164.08,24.4-116.99,42.54-237.4,58.01-360.34h0ZM104.05,118.63c15.84,1.75,31.16,6.55,46.21,13.08l-68.02,341.84c77.4,2.9,143.51,25.58,202.31,61.04-77.75-24.73-159.92-35.54-248.53-26.16L104.05,118.63h0ZM831.79,39.88c15.47,122.94,33.61,243.35,58.01,360.34-112.31,24.3-211.39,78.76-296.92,164.08v-77.57c30.13-73.34,85.25-140.64,158.54-203.56-48.96-38.28-87.41-84.83-115.54-139.48,52.19-40.32,116.92-76.88,195.9-103.81h0ZM976.69,118.63l68.03,389.81c-88.61-9.38-170.78,1.43-248.53,26.16,58.8-35.46,124.91-58.14,202.31-61.04l-68.02-341.84c15.05-6.53,30.37-11.33,46.21-13.08h0Z"/>
    </g>
  </g>
</svg>

<?xml version="1.0" encoding="UTF-8" standalone="no"?>
<svg
   id="Layer_2"
   data-name="Layer 2"
   viewBox="0 0 1080.36 635.88"
   version="1.1"
   width="1080.36"
   height="635.88"
   xmlns="http://www.w3.org/2000/svg"
   xmlns:svg="http://www.w3.org/2000/svg">
  <defs
     id="defs13">
    <style
       id="style1">
      .cls-1, .cls-2 {
        fill-rule: evenodd;
        stroke-width: 0px;
      }

      .cls-2 {
        fill: url(#New_Gradient_Swatch_2);
      }
    </style>
    <linearGradient
       id="New_Gradient_Swatch_2"
       data-name="New Gradient Swatch 2"
       x1="-419.63"
       y1="859.88"
       x2="-418.63"
       y2="859.88"
       gradientTransform="matrix(1008.69,0,0,-524.42,423311.13,451238.69)"
       gradientUnits="userSpaceOnUse">
      <stop
         offset="0"
         stop-color="#612c75"
         id="stop1" />
      <stop
         offset="0"
         stop-color="#653179"
         id="stop2" />
      <stop
         offset=".11"
         stop-color="#855693"
         id="stop3" />
      <stop
         offset=".21"
         stop-color="#9e73a8"
         id="stop4" />
      <stop
         offset=".31"
         stop-color="#b088b7"
         id="stop5" />
      <stop
         offset=".41"
         stop-color="#bb94c0"
         id="stop6" />
      <stop
         offset=".5"
         stop-color="#bf99c3"
         id="stop7" />
      <stop
         offset=".59"
         stop-color="#bb94c0"
         id="stop8" />
      <stop
         offset=".69"
         stop-color="#b088b7"
         id="stop9" />
      <stop
         offset=".79"
         stop-color="#9e73a8"
         id="stop10" />
      <stop
         offset=".89"
         stop-color="#855693"
         id="stop11" />
      <stop
         offset=".99"
         stop-color="#653179"
         id="stop12" />
      <stop
         offset="1"
         stop-color="#612c75"
         id="stop13" />
    </linearGradient>
  </defs>
  <g
     id="Layer_1-2"
     data-name="Layer 1"
     transform="translate(-0.01)">
    <g
       id="g14">
      <path
         class="cls-1"
         d="M 540,474.74 513.61,419.86 C 492.68,376.36 464.64,338.34 429.37,305.88 L 406.57,284.89 428.51,263 c 31.99,-31.93 60.5,-71.29 85.75,-117.84 L 540,97.7 v -0.68 l 0.18,0.35 0.19,-0.35 v 0.68 l 25.74,47.46 c 25.25,46.55 53.76,85.91 85.75,117.84 l 21.94,21.89 -22.8,20.99 c -35.27,32.46 -63.31,70.48 -84.24,113.98 l -26.39,54.88 v 0.77 l -0.19,-0.38 -0.18,0.38 z M 258.54,11.76 c 82.44,28.12 149.99,66.34 204.47,108.42 l 19.56,15.12 -11.3,21.97 c -24.73,48.06 -56.92,90.25 -96.66,126.5 64.26,59.66 112.64,123.29 140.72,191.65 l 2.23,5.42 V 635.87 L 466.88,585.3 C 385.57,504.19 291.43,452.33 184.65,429.23 l -28.8,-6.24 6.01,-28.86 C 186.1,277.91 204.11,158.29 219.47,36.16 L 224.03,0 Z M 107.32,89.11 c 18.76,2.08 36.95,7.63 54.76,15.35 l 22,9.53 -66.14,332.46 C 229.8,458.65 335.88,527.89 395.09,593.61 281.64,544.75 152.21,523.67 0.01,542.12 L 79.58,86.03 107.31,89.11 Z M 821.83,11.76 856.33,0 l 4.56,36.17 c 15.36,122.14 33.37,241.75 57.61,357.97 l 6.01,28.86 -28.8,6.24 C 788.93,452.34 694.79,504.2 613.48,585.31 L 562.8,635.88 V 480.85 l 2.23,-5.42 c 28.08,-68.36 76.46,-131.99 140.72,-191.65 -39.76,-36.25 -71.93,-78.44 -96.66,-126.5 l -11.3,-21.97 19.56,-15.12 C 671.83,78.11 739.38,39.89 821.82,11.77 v 0 z m 151.23,77.35 27.73,-3.08 79.58,456.08 C 928.17,523.67 798.74,544.74 685.29,593.6 744.5,527.89 850.58,458.65 962.44,446.44 l -66.14,-332.46 22,-9.53 c 17.81,-7.72 36,-13.27 54.76,-15.35 v 0 z"
         id="path13" />
      <path
         class="cls-2"
         d="m 540.37,406.99 c -22.57,-46.92 -52.84,-87.94 -90.89,-122.95 33.88,-33.82 64.15,-75.42 90.89,-124.7 26.74,49.28 57.01,90.89 90.89,124.7 -38.05,35.02 -68.32,76.03 -90.89,122.95 z M 248.95,39.88 c 78.98,26.93 143.71,63.49 195.9,103.81 -28.13,54.65 -66.58,101.2 -115.54,139.48 73.3,62.92 128.41,130.21 158.54,203.56 V 564.3 C 402.33,478.98 303.24,424.52 190.93,400.22 215.33,283.23 233.47,162.82 248.94,39.88 v 0 z m -144.9,78.75 c 15.84,1.75 31.16,6.55 46.21,13.08 L 82.24,473.55 c 77.4,2.9 143.51,25.58 202.31,61.04 C 206.8,509.86 124.63,499.05 36.02,508.43 Z M 831.79,39.88 C 847.26,162.82 865.4,283.23 889.8,400.22 777.49,424.52 678.41,478.98 592.88,564.3 V 486.73 C 623.01,413.39 678.13,346.09 751.42,283.17 702.46,244.89 664.01,198.34 635.88,143.69 688.07,103.37 752.8,66.81 831.78,39.88 v 0 z m 144.9,78.75 68.03,389.81 c -88.61,-9.38 -170.78,1.43 -248.53,26.16 58.8,-35.46 124.91,-58.14 202.31,-61.04 L 930.48,131.72 c 15.05,-6.53 30.37,-11.33 46.21,-13.08 v 0 z"
         id="path14"
         style="fill:url(#New_Gradient_Swatch_2)" />
    </g>
  </g>
</svg>
